X:1
T:Title
%%score { ( 1 3 ) | ( 2 4 ) }
L:1/8
M:4/4
K:F
V:1 bass nm="Grand Piano"
V:3 bass 
V:2 treble 
V:4 treble 
V:1
 z4 z2[Q:1/4=92] C,2 | z2 FG F2 G2 | A2 G2 F2 A,B, | C2 FG F2 G2 |[M:3/4] A2 G2 F2 | %5
[M:1/4][K:bass] A,F, |[M:4/4] z2[K:treble] GA G2 A2 | B2 A2 G2 B,A, | z2 GA G2 A2 | %9
[M:3/4] =B2 A2 G2 |[M:1/4][K:bass] F,D, |[M:4/4] z2[K:treble] [EG][EA] [EG]2 [EA]2 | %12
 [DEB]2 A2 G2[K:bass] B,,2 | z2 EF E2 F2 |[M:3/4] G2[K:treble] F2 E2 |[M:1/4][K:bass] =B,,^C, | %16
[M:4/4][K:treble] z2 FG F2 G2 | A2 G2 F2[K:bass] F,^F, | z2[K:treble] GA G2 F2 | %19
[M:3/4] [=B,E]2 D2 C2 |[M:1/4] C2 |[M:4/4] c2 c2 cEGE | c2 c2 cDFD | c2 c2 cEGE |[M:5/8] c2 c2 c | %25
[M:3/8] CDF |[M:4/4] c2 z2 z4 | %27
 c2 c2 cDFD[Q:1/4=89][Q:1/4=86][Q:1/4=83][Q:1/4=81][Q:1/4=78][Q:1/4=75][Q:1/4=72] | %28
 E2 [DEB]2 [CFA]2 G2 |[M:7/8] F-F-F- F- F3 |] %30
V:2
 z8 | z2 [A,C][B,C] [A,C]2 [B,C]2 | [CF]2 [B,C]2 [A,C]2 z2 | z2 [A,C][B,C] [A,C]2 [B,C]2 | %4
[M:3/4] [CF]2 [B,C]2 [A,C]2 |[M:1/4] z2 |[M:4/4] z2 [B,D][CD] [B,D]2 [CD]2 | %7
 [DG]2 [CD]2 [B,D]2 z2 | z2 [=B,F][CF] [B,F]2 [CF]2 |[M:3/4] [DF]2 [CF]2 [=B,F]2 |[M:1/4] z2 | %11
[M:4/4] z2[K:bass] B,C B,2 C2 | z2 [CE]2 [B,E]2 z2 | z2[K:treble] [A,^C][A,D] [A,C]2 [A,D]2 | %14
[M:3/4] [A,E]2 [A,D]2 [A,^C]2 |[M:1/4] z2 |[M:4/4] z2 [A,D][A,E] [A,D]2 [A,E]2 | %17
 [A,F]2 [A,E]2 [A,D]2 z2 | z2 [=B,F][CF] [B,F]2[K:bass] [A,B,]2 |[M:3/4] z2 [F,=B,]2 [C,E,]2 | %20
[M:1/4] z2 |[M:4/4] [F,C]2 [F,C]2 .[F,C]2 z2 | [F,A,F]2 C2- [F,A,C]2 z2 | %23
 [G,B,E]2 C2- [G,B,C]2 z2 |[M:5/8] z2 C3 |[M:3/8] A,B,D |[M:4/4] F,2 F,2 F,B,B,B, | z2 [A,C]4 z2 | %28
 B,2 C,2 C,2 [C,B,C]2 |[M:7/8] [F,A,C]2 [B,,B,]2 [F,,F,]3 |] %30
V:3
 x8 | F,8- | F,6 z2 | x8 |[M:3/4] x6 |[M:1/4][K:bass] x2 |[M:4/4] E,8[K:treble] | x8 | G,8- | %9
[M:3/4] G,6 |[M:1/4][K:bass] x2 |[M:4/4] E,8[K:treble] | x6[K:bass] x2 | A,,8- | %14
[M:3/4] A,,6[K:treble] |[M:1/4][K:bass] x2 |[M:4/4][K:treble] D,8- | D,6[K:bass] z2 | %18
 G,8[K:treble] |[M:3/4] x6 |[M:1/4] x2 |[M:4/4] A6 z2 | x8 | x8 |[M:5/8] x5 |[M:3/8] x3 | %26
[M:4/4] [CA]2- [C-A-c]2 [CAc]EGE | x8 | x8 |[M:7/8] z2 D2 [A,C]3 |] %30
V:4
 x8 | x8 | x8 | x8 |[M:3/4] x6 |[M:1/4] x2 |[M:4/4] x8 | G,6 z2 | x8 |[M:3/4] x6 |[M:1/4] x2 | %11
[M:4/4] x2[K:bass] x6 | C,6 z2 | x2[K:treble] x6 |[M:3/4] x6 |[M:1/4] x2 |[M:4/4] x8 | x8 | %18
 x6[K:bass] x2 |[M:3/4] [G,,G,]4 z2 |[M:1/4] x2 |[M:4/4] x8 | z2 [F,A,]2 z4 | z2 [G,B,]2 z4 | %24
[M:5/8] [F,A,F]2 [F,A,]2 [F,A,] |[M:3/8] x3 |[M:4/4] x8 | [F,A,F]2 F,2 F,A,A,A, | x8 |[M:7/8] x7 |] %30

